!!!OTL: Mai huangli
!!!ARE: Asia, China,ÿAnhui Huoqiu
!! III, 556
!!!SCT: C2058
!!!YEM: Copyright 1995, estate of Helmut Schaffrath.
**kern
*ICvox
*Ivox
*M2/4
*k[f#]
*G:
{4d
8e
8g
=1
4d
4e
=2
8e
8a
8a
8e
=3
8d
8d
4e}
=4
{4g
4a
=5
8.b
16a
4g
=6
8e
4a
8e
=7
8d
8B
8d
8d}
=8
{8e
16e
16d
8e
8g
=9
8.a
16g
16e
16d
8e
=10
2d}
=11
{8e
16d
16e
16g
16a
16g
16e
=12
8d
8B
8d
8d}
=13
{8e
8d
8e
8g
=14
16a
16b
16a
16g
16e
16d
8e
=15
2d}
==
!!!AGN: Xiaodiao
!!!AMT: simple duple
!!!AIN: vox
!!!EED: Helmut Schaffrath
!!!EEV: 1.0
*-
